svg/u1f6b8.svg

<svg viewBox="0 0 128 128" xmlns="http://www.w3.org/2000/svg">
  <g>
    <path d="M69.61,6.36l52.2,52c2.99,3.13,2.9,8.08-0.2,11.1l-52,52.2c-3.12,3.12-8.18,3.12-11.3,0l-52-52.2 c-3.04-3.04-3.13-7.95-0.2-11.1l52.2-52C61.43,3.25,66.49,3.25,69.61,6.36z" fill="#F2A600"/>
    <path d="M64.71,10.46l48.5,48.4c2.79,2.89,2.71,7.49-0.18,10.28c-0.01,0.01-0.01,0.01-0.02,0.02l-48.4,48.5 c-2.9,2.9-7.59,2.9-10.49,0.01c0,0,0,0-0.01-0.01l-48.3-48.5c-2.9-2.79-2.99-7.39-0.21-10.29c0,0,0,0,0.01-0.01l48.6-48.4 C57.11,7.56,61.81,7.56,64.71,10.46C64.71,10.46,64.71,10.46,64.71,10.46z" fill="#FFCC32"/>
    <g opacity="0.2">
      <path d="M71.61,25.96c3.59,0,6.5,2.91,6.5,6.5c0,3.59-2.91,6.5-6.5,6.5s-6.5-2.91-6.5-6.5 c-0.01-3.58,2.9-6.49,6.48-6.5C71.6,25.96,71.61,25.96,71.61,25.96" fill="#424242"/>
      <path d="M72.51,39.66c1.15,0,2.3,0.17,3.4,0.5c1.48,0.47,2.7,1.51,3.4,2.9l4.5,8.2c0.2,0.3,0.4,0.5,0.6,0.8 l8.8,7.1c1.01,0.85,1.19,2.34,0.4,3.4c-0.47,0.57-1.16,0.9-1.9,0.9c-0.54-0.01-1.06-0.19-1.5-0.5l-9.5-7.7 c-0.16-0.14-0.3-0.31-0.4-0.5c-0.1-0.1-0.1-0.2-0.2-0.3l-1.2-2.2v10.5c0.01,0.99,0.18,1.97,0.5,2.9l8.5,22.2 c0.6,1.6-0.2,3.39-1.8,4c-0.36,0.11-0.73,0.18-1.1,0.2c-1.28-0.04-2.41-0.82-2.9-2l-8.5-22.3c-0.23-0.62-0.84-1.02-1.5-1 c-0.87-0.01-1.59,0.69-1.6,1.56c0,0.01,0,0.03,0,0.04l-0.1,7.4c-0.02,0.34-0.09,0.68-0.2,1c-0.01,0.39-0.11,0.76-0.3,1.1 l-6.4,12.6c-0.59,0.98-1.65,1.59-2.8,1.6c-0.48,0.01-0.96-0.1-1.4-0.3c-1.51-0.81-2.09-2.68-1.3-4.2l6.3-12.2l0.2-9.7v-1.8 c-0.2,0.19-0.44,0.33-0.7,0.4c-0.29,0.11-0.59,0.18-0.9,0.2c-0.99,0-1.89-0.59-2.3-1.5l-3.7-9.4c-0.4-0.95-0.12-2.06,0.7-2.7 l7.7-8.4C66.91,40.56,69.81,39.66,72.51,39.66 M64.41,59.46v-8.4c0-0.2-0.1-0.2-0.2-0.2s-0.1,0-0.2,0.1l-1.7,1.9 c-0.21,0.21-0.29,0.52-0.2,0.8L64.41,59.46" fill="#424242"/>
      <path d="M45.31,38.76c3.59,0,6.5,2.91,6.5,6.5s-2.91,6.5-6.5,6.5s-6.5-2.91-6.5-6.5l0,0 c-0.01-3.58,2.9-6.49,6.48-6.5C45.3,38.76,45.31,38.76,45.31,38.76" fill="#424242"/>
      <path d="M45.51,52.56c1.54,0.01,3.07,0.31,4.5,0.9c1.7,0.7,4.1,5,5.1,6.5c0.18,0.26,0.48,0.42,0.8,0.4h0.2 l5.8-1.2h0.5c1.34-0.04,2.45,1.02,2.49,2.35c0.03,1.19-0.81,2.23-1.99,2.45l-8,1.6h-1c-0.6-0.1-1.13-0.42-1.5-0.9l-1.3-1.7v9 c0,0.1,0.1,0.1,0.1,0.2l6.1,16.7c0.46,1.23-0.16,2.6-1.39,3.06c-0.03,0.01-0.07,0.03-0.11,0.04c-0.26,0.08-0.53,0.12-0.8,0.1 c-1.02,0-1.94-0.64-2.3-1.6l-5.1-14.1c-0.26-0.71-0.94-1.19-1.7-1.2c-0.99-0.01-1.79,0.79-1.8,1.78c0,0.01,0,0.01,0,0.02v3.2 c0.12,0.63-0.02,1.28-0.4,1.8l-6.5,9c-0.45,0.65-1.21,1.03-2,1c-0.49-0.03-0.97-0.16-1.4-0.4c-1.07-0.8-1.33-2.29-0.6-3.4l5.8-8.1 c0.11-0.18,0.18-0.39,0.2-0.6l-0.1-7.1c-0.02-0.21,0.02-0.41,0.1-0.6v-9.4c0-0.55-0.45-1-1-1c-0.21,0.02-0.42,0.09-0.6,0.2l-1.3,1 c-0.12,0.11-0.23,0.25-0.3,0.4l-3,6.7c-0.39,0.86-1.25,1.41-2.2,1.4c-0.56,0-1.09-0.22-1.5-0.6c-0.87-0.69-1.13-1.92-0.6-2.9 l3.3-7.3l0,0c0.1-0.1,0.1-0.3,0.2-0.4l0,0l0.3-0.3l0,0l0.1-0.1c0,0,6.9-5.3,7.2-5.5C41.57,53.04,43.53,52.56,45.51,52.56" fill="#424242"/>
    </g>
    <linearGradient id="SVGID_1_" gradientTransform="matrix(1 0 0 -1 -3.66 -1776.0901)" gradientUnits="userSpaceOnUse" x1="75.2721" x2="75.2721" y1="-1800.9038" y2="-1869.7938">
      <stop offset="0" stop-color="#424242"/>
      <stop offset="1" stop-color="#212121"/>
    </linearGradient>
    <circle cx="71.61" cy="32.47" r="6.5" fill="url(#SVGID_1_)"/>
    <linearGradient id="SVGID_2_" gradientTransform="matrix(1 0 0 -1 -3.66 -1776.0902)" gradientUnits="userSpaceOnUse" x1="79.1502" x2="79.1502" y1="-1800.9038" y2="-1869.7938">
      <stop offset="0" stop-color="#424242"/>
      <stop offset="1" stop-color="#212121"/>
    </linearGradient>
    <path d="M93.31,59.06l-8.7-7c-0.28-0.19-0.49-0.47-0.6-0.8l-4.6-8.2c-0.75-1.34-1.96-2.37-3.4-2.9 c-3.4-1-8.3-0.4-10.7,2.2l-7.7,8.4c-0.81,0.65-1.09,1.74-0.7,2.7l3.7,9.4c0.48,1.23,1.86,1.85,3.1,1.4c0.26-0.07,0.5-0.21,0.7-0.4 v1.8l-0.2,9.7l-6.3,12.2c-0.76,1.54-0.13,3.41,1.41,4.16c1.48,0.73,3.28,0.18,4.09-1.26l6.5-12.7c0.2-0.33,0.31-0.71,0.3-1.1 c0.12-0.32,0.19-0.66,0.2-1l0.1-7.4c-0.01-0.87,0.69-1.59,1.56-1.6c0.01,0,0.03,0,0.04,0c0.66-0.02,1.27,0.38,1.5,1l8.6,22.4 c0.61,1.6,2.4,2.41,4,1.8s2.41-2.4,1.8-4l-8.5-22.3c-0.32-0.93-0.49-1.91-0.5-2.9v-10.4l1.2,2.2c0.1,0.1,0.1,0.2,0.2,0.3 s0.3,0.3,0.4,0.5l9.5,7.7c1.03,0.83,2.54,0.67,3.37-0.37c0.01-0.01,0.02-0.02,0.03-0.03C94.55,61.48,94.37,59.93,93.31,59.06z M62.21,52.86l1.7-1.9c0.2-0.2,0.4-0.1,0.4,0.2v8.4l-2.3-5.8C62.01,53.36,62.01,53.06,62.21,52.86z" fill="url(#SVGID_2_)"/>
    <linearGradient id="SVGID_3_" gradientTransform="matrix(1 0 0 -1 -3.66 -1776.0901)" gradientUnits="userSpaceOnUse" x1="48.9721" x2="48.9721" y1="-1800.9038" y2="-1869.7938">
      <stop offset="0" stop-color="#424242"/>
      <stop offset="1" stop-color="#212121"/>
    </linearGradient>
    <circle cx="45.31" cy="45.26" r="6.5" fill="url(#SVGID_3_)"/>
    <linearGradient id="SVGID_4_" gradientTransform="matrix(1 0 0 -1 -3.66 -1776.0902)" gradientUnits="userSpaceOnUse" x1="50.5016" x2="50.5016" y1="-1800.9038" y2="-1869.7938">
      <stop offset="0" stop-color="#424242"/>
      <stop offset="1" stop-color="#212121"/>
    </linearGradient>
    <path d="M64.61,60.46c-0.49-1-1.63-1.51-2.7-1.2l-5.8,1.2c-0.38,0.07-0.77-0.08-1-0.4 c-1.1-1.5-3.4-5.9-5.1-6.5c-3.21-1.34-6.85-1.16-9.9,0.5c-0.3,0-7.2,5.4-7.2,5.4l-0.1,0.1l0,0l-0.3,0.3l0,0 c-0.11,0.11-0.17,0.25-0.2,0.4l0,0l-3.3,7.3c-0.48,0.99-0.23,2.18,0.6,2.9c1.01,0.87,2.53,0.76,3.4-0.25 c0.17-0.19,0.3-0.41,0.4-0.65l3-6.7c0.07-0.15,0.18-0.29,0.3-0.4l1.3-1c0.44-0.33,1.07-0.24,1.4,0.2c0.13,0.17,0.2,0.38,0.2,0.6 v9.4c0,0.2-0.1,0.4-0.1,0.6l0.1,7.1c-0.02,0.21-0.09,0.42-0.2,0.6l-5.8,8.1c-0.77,1.1-0.5,2.63,0.6,3.4c1.1,0.77,2.63,0.5,3.4-0.6 l0,0l6.5-9c0.38-0.52,0.52-1.17,0.4-1.8v-3.2c-0.01-0.99,0.79-1.79,1.78-1.8c0.01,0,0.01,0,0.02,0c0.76,0.01,1.44,0.49,1.7,1.2 l5.1,14.1c0.49,1.23,1.83,1.88,3.1,1.5c1.25-0.47,1.9-1.83,1.5-3.1l-6.4-16.7c0-0.1-0.1-0.1-0.1-0.2v-9l1.3,1.7 c0.37,0.48,0.9,0.8,1.5,0.9h1l8-1.6c1.25-0.22,2.09-1.41,1.86-2.67C64.83,60.94,64.74,60.69,64.61,60.46z" fill="url(#SVGID_4_)"/>
    <path d="M52.91,17.66c-1.6,1.1-33.1,32.3-33.1,32.3s-2.6,2.3-0.8,4.7c1.7,2.2,4.3,1.1,5.6-0.1 s29.7-29,30.9-30.4c1.19-1.59,1.42-3.69,0.6-5.5C55.31,17.06,54.01,16.86,52.91,17.66z" fill="#FFF170"/>
    <circle cx="15.51" cy="60.47" r="3.3" fill="#FFF170"/>
  </g>
</svg>

<svg viewBox="0 0 128 128" xmlns="http://www.w3.org/2000/svg">
  <defs>
    <linearGradient id="SVGID_1_" gradientTransform="matrix(1 0 0 -1 0 0)" gradientUnits="userSpaceOnUse" x1="71.6121" x2="71.6121" y1="-24.8137" y2="-93.7037">
      <stop offset="0" stop-color="#424242"/>
      <stop offset="1" stop-color="#212121"/>
    </linearGradient>
    <linearGradient id="SVGID_2_" gradientTransform="matrix(1 0 0 -1 0 0)" gradientUnits="userSpaceOnUse" x1="75.4902" x2="75.4902" y1="-24.8136" y2="-93.7036">
      <stop offset="0" stop-color="#424242"/>
      <stop offset="1" stop-color="#212121"/>
    </linearGradient>
    <linearGradient id="SVGID_3_" gradientTransform="matrix(1 0 0 -1 0 0)" gradientUnits="userSpaceOnUse" x1="45.3121" x2="45.3121" y1="-24.8137" y2="-93.7037">
      <stop offset="0" stop-color="#424242"/>
      <stop offset="1" stop-color="#212121"/>
    </linearGradient>
    <linearGradient id="SVGID_4_" gradientTransform="matrix(1 0 0 -1 0 0)" gradientUnits="userSpaceOnUse" x1="46.8416" x2="46.8416" y1="-24.8136" y2="-93.7036">
      <stop offset="0" stop-color="#424242"/>
      <stop offset="1" stop-color="#212121"/>
    </linearGradient>
  </defs>
  <path d="M69.61,6.36 L121.81,58.36 C124.8,61.49 124.71,66.44 121.61,69.46 L69.61,121.66 C66.49,124.78 61.43,124.78 58.31,121.66 L6.31,69.46 C3.27,66.42 3.18,61.51 6.11,58.36 L58.31,6.36 C61.43,3.25 66.49,3.25 69.61,6.36 Z" fill="#F2A600"/>
  <path d="M64.71,10.46 L113.21,58.86 C116,61.75 115.92,66.35 113.03,69.14 C113.02,69.15 113.02,69.15 113.01,69.16 L64.61,117.66 C61.71,120.56 57.02,120.56 54.12,117.67 C54.12,117.67 54.12,117.67 54.11,117.66 L5.81,69.16 C2.91,66.37 2.82,61.77 5.6,58.87 C5.6,58.87 5.6,58.87 5.61,58.86 L54.21,10.46 C57.11,7.56 61.81,7.56 64.71,10.46 C64.71,10.46 64.71,10.46 64.71,10.46 Z" fill="#FFCC32"/>
  <g opacity="0.2">
    <path d="M71.61,25.96 C75.2,25.96 78.11,28.87 78.11,32.46 C78.11,36.05 75.2,38.96 71.61,38.96 C68.02,38.96 65.11,36.05 65.11,32.46 C65.1,28.88 68.01,25.97 71.59,25.96 C71.6,25.96 71.61,25.96 71.61,25.96" fill="#424242"/>
    <path d="M72.51,39.66 C73.66,39.66 74.81,39.83 75.91,40.16 C77.39,40.63 78.61,41.67 79.31,43.06 L83.81,51.26 C84.01,51.56 84.21,51.76 84.41,52.06 L93.21,59.16 C94.22,60.01 94.4,61.5 93.61,62.56 C93.14,63.13 92.45,63.46 91.71,63.46 C91.17,63.45 90.65,63.27 90.21,62.96 L80.71,55.26 C80.55,55.12 80.41,54.95 80.31,54.76 C80.21,54.66 80.21,54.56 80.11,54.46 L78.91,52.26 L78.91,62.76 C78.92,63.75 79.09,64.73 79.41,65.66 L87.91,87.86 C88.51,89.46 87.71,91.25 86.11,91.86 C85.75,91.97 85.38,92.04 85.01,92.06 C83.73,92.02 82.6,91.24 82.11,90.06 L73.61,67.76 C73.38,67.14 72.77,66.74 72.11,66.76 C71.24,66.75 70.52,67.45 70.51,68.32 C70.51,68.33 70.51,68.35 70.51,68.36 L70.41,75.76 C70.39,76.1 70.32,76.44 70.21,76.76 C70.2,77.15 70.1,77.52 69.91,77.86 L63.51,90.46 C62.92,91.44 61.86,92.05 60.71,92.06 C60.23,92.07 59.75,91.96 59.31,91.76 C57.8,90.95 57.22,89.08 58.01,87.56 L64.31,75.36 L64.51,65.66 L64.51,63.86 C64.31,64.05 64.07,64.19 63.81,64.26 C63.52,64.37 63.22,64.44 62.91,64.46 C61.92,64.46 61.02,63.87 60.61,62.96 L56.91,53.56 C56.51,52.61 56.79,51.5 57.61,50.86 L65.31,42.46 C66.91,40.56 69.81,39.66 72.51,39.66 M64.41,59.46 L64.41,51.06 C64.41,50.86 64.31,50.86 64.21,50.86 C64.11,50.86 64.11,50.86 64.01,50.96 L62.31,52.86 C62.1,53.07 62.02,53.38 62.11,53.66 L64.41,59.46" fill="#424242"/>
    <path d="M45.31,38.76 C48.9,38.76 51.81,41.67 51.81,45.26 C51.81,48.85 48.9,51.76 45.31,51.76 C41.72,51.76 38.81,48.85 38.81,45.26 L38.81,45.26 C38.8,41.68 41.71,38.77 45.29,38.76 C45.3,38.76 45.31,38.76 45.31,38.76" fill="#424242"/>
    <path d="M45.51,52.56 C47.05,52.57 48.58,52.87 50.01,53.46 C51.71,54.16 54.11,58.46 55.11,59.96 C55.29,60.22 55.59,60.38 55.91,60.36 L56.11,60.36 L61.91,59.16 L62.41,59.16 C63.75,59.12 64.86,60.18 64.9,61.51 C64.93,62.7 64.09,63.74 62.91,63.96 L54.91,65.56 L53.91,65.56 C53.31,65.46 52.78,65.14 52.41,64.66 L51.11,62.96 L51.11,71.96 C51.11,72.06 51.21,72.06 51.21,72.16 L57.31,88.86 C57.77,90.09 57.15,91.46 55.92,91.92 C55.89,91.93 55.85,91.95 55.81,91.96 C55.55,92.04 55.28,92.08 55.01,92.06 C53.99,92.06 53.07,91.42 52.71,90.46 L47.61,76.36 C47.35,75.65 46.67,75.17 45.91,75.16 C44.92,75.15 44.12,75.95 44.11,76.94 C44.11,76.95 44.11,76.95 44.11,76.96 L44.11,80.16 C44.23,80.79 44.09,81.44 43.71,81.96 L37.21,90.96 C36.76,91.61 36,91.99 35.21,91.96 C34.72,91.93 34.24,91.8 33.81,91.56 C32.74,90.76 32.48,89.27 33.21,88.16 L39.01,80.06 C39.12,79.88 39.19,79.67 39.21,79.46 L39.11,72.36 C39.09,72.15 39.13,71.95 39.21,71.76 L39.21,62.36 C39.21,61.81 38.76,61.36 38.21,61.36 C38,61.38 37.79,61.45 37.61,61.56 L36.31,62.56 C36.19,62.67 36.08,62.81 36.01,62.96 L33.01,69.66 C32.62,70.52 31.76,71.07 30.81,71.06 C30.25,71.06 29.72,70.84 29.31,70.46 C28.44,69.77 28.18,68.54 28.71,67.56 L32.01,60.26 L32.01,60.26 C32.11,60.16 32.11,59.96 32.21,59.86 L32.21,59.86 L32.51,59.56 L32.51,59.56 L32.61,59.46 C32.61,59.46 39.51,54.16 39.81,53.96 C41.57,53.04 43.53,52.56 45.51,52.56" fill="#424242"/>
  </g>
  <path d="M78.11,32.47 A6.5 6.5 0 1 1 65.11,32.47 A6.5 6.5 0 1 1 78.11,32.47 Z" fill="url(#SVGID_1_)"/>
  <path d="M93.31,59.06 L84.61,52.06 C84.33,51.87 84.12,51.59 84.01,51.26 L79.41,43.06 C78.66,41.72 77.45,40.69 76.01,40.16 C72.61,39.16 67.71,39.76 65.31,42.36 L57.61,50.76 C56.8,51.41 56.52,52.5 56.91,53.46 L60.61,62.86 C61.09,64.09 62.47,64.71 63.71,64.26 C63.97,64.19 64.21,64.05 64.41,63.86 L64.41,65.66 L64.21,75.36 L57.91,87.56 C57.15,89.1 57.78,90.97 59.32,91.72 C60.8,92.45 62.6,91.9 63.41,90.46 L69.91,77.76 C70.11,77.43 70.22,77.05 70.21,76.66 C70.33,76.34 70.4,76 70.41,75.66 L70.51,68.26 C70.5,67.39 71.2,66.67 72.07,66.66 C72.08,66.66 72.1,66.66 72.11,66.66 C72.77,66.64 73.38,67.04 73.61,67.66 L82.21,90.06 C82.82,91.66 84.61,92.47 86.21,91.86 C87.81,91.25 88.62,89.46 88.01,87.86 L79.51,65.56 C79.19,64.63 79.02,63.65 79.01,62.66 L79.01,52.26 L80.21,54.46 C80.31,54.56 80.31,54.66 80.41,54.76 C80.51,54.86 80.71,55.06 80.81,55.26 L90.31,62.96 C91.34,63.79 92.85,63.63 93.68,62.59 C93.69,62.58 93.7,62.57 93.71,62.56 C94.55,61.48 94.37,59.93 93.31,59.06 Z M62.21,52.86 L63.91,50.96 C64.11,50.76 64.31,50.86 64.31,51.16 L64.31,59.56 L62.01,53.76 C62.01,53.36 62.01,53.06 62.21,52.86 Z" fill="url(#SVGID_2_)"/>
  <path d="M51.81,45.26 A6.5 6.5 0 1 1 38.81,45.26 A6.5 6.5 0 1 1 51.81,45.26 Z" fill="url(#SVGID_3_)"/>
  <path d="M64.61,60.46 C64.12,59.46 62.98,58.95 61.91,59.26 L56.11,60.46 C55.73,60.53 55.34,60.38 55.11,60.06 C54.01,58.56 51.71,54.16 50.01,53.56 C46.8,52.22 43.16,52.4 40.11,54.06 C39.81,54.06 32.91,59.46 32.91,59.46 L32.81,59.56 L32.81,59.56 L32.51,59.86 L32.51,59.86 C32.4,59.97 32.34,60.11 32.31,60.26 L32.31,60.26 L29.01,67.56 C28.53,68.55 28.78,69.74 29.61,70.46 C30.62,71.33 32.14,71.22 33.01,70.21 C33.18,70.02 33.31,69.8 33.41,69.56 L36.41,62.86 C36.48,62.71 36.59,62.57 36.71,62.46 L38.01,61.46 C38.45,61.13 39.08,61.22 39.41,61.66 C39.54,61.83 39.61,62.04 39.61,62.26 L39.61,71.66 C39.61,71.86 39.51,72.06 39.51,72.26 L39.61,79.36 C39.59,79.57 39.52,79.78 39.41,79.96 L33.61,88.06 C32.84,89.16 33.11,90.69 34.21,91.46 C35.31,92.23 36.84,91.96 37.61,90.86 L37.61,90.86 L44.11,81.86 C44.49,81.34 44.63,80.69 44.51,80.06 L44.51,76.86 C44.5,75.87 45.3,75.07 46.29,75.06 C46.3,75.06 46.3,75.06 46.31,75.06 C47.07,75.07 47.75,75.55 48.01,76.26 L53.11,90.36 C53.6,91.59 54.94,92.24 56.21,91.86 C57.46,91.39 58.11,90.03 57.71,88.76 L51.31,72.06 C51.31,71.96 51.21,71.96 51.21,71.86 L51.21,62.86 L52.51,64.56 C52.88,65.04 53.41,65.36 54.01,65.46 L55.01,65.46 L63.01,63.86 C64.26,63.64 65.1,62.45 64.87,61.19 C64.83,60.94 64.74,60.69 64.61,60.46 Z" fill="url(#SVGID_4_)"/>
  <path d="M52.91,17.66 C51.31,18.76 19.81,49.96 19.81,49.96 C19.81,49.96 17.21,52.26 19.01,54.66 C20.71,56.86 23.31,55.76 24.61,54.56 C25.91,53.36 54.31,25.56 55.51,24.16 C56.7,22.57 56.93,20.47 56.11,18.66 C55.31,17.06 54.01,16.86 52.91,17.66 Z" fill="#FFF170"/>
  <path d="M18.81,60.47 A3.3 3.3 0 1 1 12.21,60.47 A3.3 3.3 0 1 1 18.81,60.47 Z" fill="#FFF170"/>
</svg>
